src/assets/duotone/WalletSearch.svg

<svg width="24" height="24" viewBox="0 0 24 24"  xmlns="http://www.w3.org/2000/svg">
<path d="M17.7499 7.04997C17.5099 7.00997 17.2599 6.99998 16.9999 6.99998H6.99994C6.71994 6.99998 6.44994 7.01998 6.18994 7.05998C6.32994 6.77998 6.52994 6.52001 6.76994 6.28001L10.0199 3.02C11.3899 1.66 13.6099 1.66 14.9799 3.02L16.7299 4.78996C17.3699 5.41996 17.7099 6.21997 17.7499 7.04997Z" />
<path opacity="0.4" d="M2 16.36V12C2 9.28 3.64 7.38 6.19 7.06C6.45 7.02 6.72 7 7 7H17C17.26 7 17.51 7.00999 17.75 7.04999C20.33 7.34999 22 9.26 22 12V17C22 19.76 19.76 22 17 22H7.63H7C4.24 22 2 19.76 2 17V16.36Z" />
<path d="M22 12.5H19C17.9 12.5 17 13.4 17 14.5C17 15.6 17.9 16.5 19 16.5H22" />
<path d="M1.23006 21.68L1.99005 20.92C1.59005 20.32 1.36006 19.6 1.36006 18.83C1.36006 16.72 3.07006 15.01 5.18006 15.01C7.29006 15.01 9.00006 16.72 9.00006 18.83C9.00006 20.94 7.29006 22.65 5.18006 22.65C4.41006 22.65 3.69005 22.42 3.09005 22.02L2.33006 22.78C2.18006 22.93 1.98005 23.01 1.78005 23.01C1.58005 23.01 1.38006 22.93 1.23006 22.78C0.920059 22.47 0.920059 21.98 1.23006 21.68Z" />
</svg>

<?xml version="1.0" encoding="UTF-8"?>
<svg width="24" height="24" viewBox="0 0 24 24" xmlns="http://www.w3.org/2000/svg">
 <path d="m17.75 7.05c-0.24-0.04-0.49-0.04999-0.75-0.04999h-10c-0.28 0-0.55 0.02-0.81 0.06 0.14-0.28 0.34-0.53997 0.58-0.77997l3.25-3.26c1.37-1.36 3.59-1.36 4.96 0l1.75 1.77c0.64 0.63 0.98 1.43 1.02 2.26z"/>
 <path d="m2 16.36v-4.36c0-2.72 1.64-4.62 4.19-4.94 0.26-0.04 0.53-0.06 0.81-0.06h10c0.26 0 0.51 0.00999 0.75 0.04999 2.58 0.3 4.25 2.21 4.25 4.95v5c0 2.76-2.24 5-5 5h-10c-2.76 0-5-2.24-5-5v-0.64z" opacity=".4"/>
 <path d="m22 12.5h-3c-1.1 0-2 0.9-2 2s0.9 2 2 2h3"/>
 <path d="m1.2301 21.68 0.75999-0.76c-0.4-0.6-0.62999-1.32-0.62999-2.09 0-2.11 1.71-3.82 3.82-3.82s3.82 1.71 3.82 3.82-1.71 3.82-3.82 3.82c-0.77 0-1.49-0.23-2.09-0.63l-0.75999 0.76c-0.15 0.15-0.35001 0.23-0.55001 0.23s-0.39999-0.08-0.54999-0.23c-0.31-0.31-0.31-0.8 0-1.1z"/>
</svg>
